X:3103
T:Dronning Dagmar
C:anon.
O:Denmark
Z:Transcribed by Frank Nordberg - http://www.musicaviva.com
F:http://abc.musicaviva.com/tunes/denmark/dronning-dagmar/dronning-dagmar-1.abc
M:4/2 %org.:C|
L:1/4
K:Ddor
DD|A2_BA G2FG|A2A2 c2c2|F2F2 GGAF|
w:Dron-ning Dag-mar hun lig-ger i Ri-be syg til Ring-sted la-der hun sig
ED2D|A2_BA G2FG|A2A2 c2c2|FFF2 G2(AF)|
w:ven-te og al-le de fru-er i Dan-mark er dem la-der hun til sig_
GF2 EE|DG AAGF|ED3|]
w:hen-te. Ud-i Ring-sted hvi-les dron-ning Dag-mar.
W:
W:Dronning Dagmar hun ligger i Ribe syg
W:til Ringsted lader hun sig vente
W:og alle de fruer i Danmark er
W:dem lader hun til sig hente.
W:Udi Ringsted hviles dronning Dagmar.
W:
W:
W:
W:  From Musica Viva - http://www.musicaviva.com
W:  the Internet center for free sheet music downloads.

